flaticon/delivery/package-10.svg

<svg xmlns="http://www.w3.org/2000/svg" width="32" height="32" viewBox="0 0 24 24">
    <path d="M 8.386719 16.792969 L 2.796875 16.792969 C 2.554688 16.792969 2.394531 16.953125 2.394531 17.191406 L 2.394531 21.984375 C 2.394531 22.222656 2.554688 22.382812 2.796875 22.382812 L 8.386719 22.382812 C 8.625 22.382812 8.785156 22.222656 8.785156 21.984375 L 8.785156 17.191406 C 8.785156 16.953125 8.625 16.792969 8.386719 16.792969 Z M 7.988281 21.585938 L 3.195312 21.585938 L 3.195312 17.589844 L 7.988281 17.589844 Z M 7.988281 21.585938"/>
    <path d="M4.394531 19.1875L6.789062 19.1875C7.027344 19.1875 7.1875 19.027344 7.1875 18.789062 7.1875 18.550781 7.027344 18.390625 6.789062 18.390625L4.394531 18.390625C4.152344 18.390625 3.992188 18.550781 3.992188 18.789062 3.992188 19.027344 4.152344 19.1875 4.394531 19.1875zM4.394531 20.785156L5.988281 20.785156C6.230469 20.785156 6.390625 20.625 6.390625 20.386719 6.390625 20.144531 6.230469 19.988281 5.988281 19.988281L4.394531 19.988281C4.152344 19.988281 3.992188 20.144531 3.992188 20.386719 3.992188 20.625 4.152344 20.785156 4.394531 20.785156zM4.394531 20.785156"/>
    <path d="M 23.082031 3.972656 C 22.921875 3.933594 22.800781 3.8125 22.722656 3.652344 C 22.640625 3.496094 22.640625 3.335938 22.722656 3.175781 C 22.960938 2.617188 22.882812 2.015625 22.441406 1.578125 C 22.003906 1.136719 21.40625 1.058594 20.84375 1.296875 C 20.6875 1.378906 20.527344 1.378906 20.367188 1.296875 C 20.207031 1.21875 20.085938 1.097656 20.046875 0.9375 C 19.847656 0.378906 19.328125 0.0195312 18.730469 0.0195312 C 18.128906 0.0195312 17.609375 0.378906 17.371094 0.898438 C 17.332031 1.058594 17.210938 1.179688 17.050781 1.257812 C 16.890625 1.335938 16.730469 1.335938 16.574219 1.257812 C 16.011719 1.019531 15.414062 1.097656 14.976562 1.539062 C 14.535156 1.976562 14.457031 2.574219 14.695312 3.132812 C 14.777344 3.292969 14.777344 3.453125 14.695312 3.613281 C 14.617188 3.773438 14.496094 3.855469 14.335938 3.933594 C 13.964844 4.089844 13.710938 4.414062 13.601562 4.8125 L 11.980469 4.8125 L 11.980469 4.414062 C 11.980469 4.171875 11.820312 4.011719 11.582031 4.011719 L 7.585938 4.011719 C 7.347656 4.011719 7.1875 4.171875 7.1875 4.414062 L 7.1875 4.8125 L 1.957031 4.8125 C 0.878906 4.8125 0 5.691406 0 6.808594 L 0 21.984375 C 0 23.101562 0.878906 23.980469 1.957031 23.980469 L 17.171875 23.980469 C 18.289062 23.980469 19.167969 23.101562 19.167969 21.984375 L 19.167969 10.339844 C 19.558594 10.230469 19.867188 9.96875 20.046875 9.644531 C 20.085938 9.484375 20.207031 9.363281 20.367188 9.285156 C 20.527344 9.203125 20.6875 9.203125 20.84375 9.285156 C 21.40625 9.523438 22.003906 9.445312 22.441406 9.003906 C 22.882812 8.566406 22.960938 7.964844 22.722656 7.40625 C 22.640625 7.246094 22.640625 7.089844 22.722656 6.929688 C 22.800781 6.769531 22.921875 6.648438 23.082031 6.609375 C 23.640625 6.410156 24 5.890625 24 5.292969 C 24 4.691406 23.640625 4.171875 23.082031 3.972656 Z M 7.988281 4.8125 L 11.179688 4.8125 L 11.179688 9.164062 L 9.824219 8.085938 C 9.703125 7.964844 9.503906 7.964844 9.34375 8.085938 L 7.988281 9.164062 Z M 18.371094 21.984375 C 18.371094 22.664062 17.851562 23.179688 17.171875 23.179688 L 1.957031 23.179688 C 1.316406 23.179688 0.796875 22.664062 0.796875 21.984375 L 0.796875 6.808594 C 0.796875 6.128906 1.316406 5.609375 1.957031 5.609375 L 7.1875 5.609375 L 7.1875 9.246094 C 7.1875 9.523438 7.347656 9.804688 7.628906 9.921875 C 7.867188 10.042969 8.1875 10.042969 8.425781 9.84375 L 9.585938 8.925781 L 10.742188 9.84375 C 10.902344 9.964844 11.0625 10.003906 11.222656 10.003906 C 11.339844 10.003906 11.460938 10.003906 11.539062 9.921875 C 11.820312 9.804688 11.980469 9.523438 11.980469 9.246094 L 11.980469 5.609375 L 13.574219 5.609375 C 13.582031 5.648438 13.59375 5.6875 13.605469 5.726562 C 13.722656 6.148438 13.988281 6.390625 14.222656 6.507812 C 14.257812 6.53125 14.296875 6.550781 14.335938 6.570312 C 14.496094 6.609375 14.617188 6.730469 14.695312 6.886719 C 14.777344 7.046875 14.777344 7.207031 14.695312 7.367188 C 14.457031 7.925781 14.535156 8.527344 14.976562 8.964844 C 15.257812 9.25 15.609375 9.382812 15.972656 9.375 C 16.191406 9.382812 16.410156 9.335938 16.613281 9.246094 C 16.683594 9.207031 16.757812 9.1875 16.832031 9.1875 C 16.90625 9.1875 16.976562 9.207031 17.050781 9.246094 C 17.210938 9.324219 17.332031 9.445312 17.410156 9.644531 C 17.433594 9.6875 17.457031 9.726562 17.480469 9.765625 C 17.65625 10.113281 17.953125 10.332031 18.371094 10.402344 Z M 22.761719 5.851562 C 22.363281 6.011719 22.082031 6.289062 21.921875 6.648438 C 21.765625 7.007812 21.804688 7.40625 21.964844 7.765625 C 22.082031 8.046875 22.003906 8.285156 21.84375 8.445312 C 21.683594 8.605469 21.445312 8.683594 21.164062 8.566406 C 20.804688 8.40625 20.40625 8.367188 20.046875 8.527344 C 19.6875 8.683594 19.40625 8.964844 19.289062 9.324219 C 19.199219 9.5 19.050781 9.589844 18.898438 9.625 C 18.859375 9.609375 18.816406 9.605469 18.769531 9.605469 C 18.289062 9.644531 18.210938 9.40625 18.167969 9.324219 C 18.011719 8.925781 17.730469 8.644531 17.371094 8.484375 C 17.050781 8.34375 16.695312 8.359375 16.367188 8.480469 C 16.328125 8.492188 16.289062 8.507812 16.253906 8.527344 C 15.972656 8.644531 15.734375 8.566406 15.574219 8.40625 C 15.414062 8.285156 15.335938 8.007812 15.453125 7.726562 C 15.652344 7.367188 15.652344 6.96875 15.492188 6.609375 C 15.335938 6.210938 15.015625 5.929688 14.65625 5.808594 C 14.640625 5.804688 14.617188 5.792969 14.59375 5.78125 C 14.433594 5.632812 14.375 5.378906 14.375 5.210938 C 14.375 5.011719 14.457031 4.773438 14.65625 4.730469 C 15.054688 4.574219 15.335938 4.292969 15.492188 3.933594 C 15.613281 3.574219 15.613281 3.175781 15.453125 2.816406 C 15.335938 2.535156 15.414062 2.296875 15.574219 2.136719 C 15.695312 1.976562 15.972656 1.855469 16.210938 2.015625 C 16.574219 2.214844 16.972656 2.214844 17.332031 2.054688 C 17.730469 1.898438 18.011719 1.578125 18.128906 1.21875 C 18.25 0.9375 18.488281 0.820312 18.6875 0.820312 C 18.886719 0.820312 19.128906 0.9375 19.246094 1.21875 C 19.40625 1.617188 19.6875 1.9375 20.046875 2.054688 C 20.40625 2.175781 20.804688 2.175781 21.164062 2.015625 C 21.445312 1.898438 21.683594 1.976562 21.84375 2.136719 C 22.003906 2.296875 22.082031 2.535156 21.964844 2.816406 C 21.804688 3.136719 21.804688 3.574219 21.921875 3.933594 C 22.082031 4.332031 22.402344 4.613281 22.761719 4.730469 C 23.042969 4.851562 23.160156 5.089844 23.160156 5.292969 C 23.160156 5.492188 23.042969 5.730469 22.761719 5.851562 Z M 22.761719 5.851562"/>
    <path d="M 18.769531 3.214844 C 17.652344 3.214844 16.773438 4.09375 16.773438 5.210938 C 16.773438 6.328125 17.652344 7.207031 18.769531 7.207031 C 19.886719 7.207031 20.765625 6.328125 20.765625 5.210938 C 20.765625 4.09375 19.886719 3.214844 18.769531 3.214844 Z M 18.769531 6.410156 C 18.089844 6.410156 17.570312 5.890625 17.570312 5.210938 C 17.570312 4.53125 18.089844 4.011719 18.769531 4.011719 C 19.449219 4.011719 19.964844 4.53125 19.964844 5.210938 C 19.964844 5.890625 19.449219 6.410156 18.769531 6.410156 Z M 18.769531 6.410156"/>
</svg>

<svg xmlns="http://www.w3.org/2000/svg" width="32" height="32" viewBox="0 0 24 24">
    <path d="M8.387 16.793h-5.59c-.242 0-.402.16-.402.398v4.793c0 .239.16.399.402.399h5.59c.238 0 .398-.16.398-.399v-4.793c0-.238-.16-.398-.398-.398zm-.399 4.793H3.195V17.59h4.793zm0 0"/>
    <path d="M4.395 19.188h2.394c.238 0 .399-.16.399-.399 0-.238-.16-.398-.399-.398H4.395c-.243 0-.403.16-.403.398 0 .238.16.398.403.398zm0 0M4.395 20.785h1.593c.242 0 .403-.16.403-.398 0-.242-.16-.399-.403-.399H4.395c-.243 0-.403.157-.403.399 0 .238.16.398.403.398zm0 0"/>
    <path d="M23.082 3.973c-.16-.04-.281-.16-.36-.32a.492.492 0 0 1 0-.477c.239-.559.16-1.16-.28-1.598-.438-.441-1.036-.52-1.598-.281a.492.492 0 0 1-.477 0c-.16-.078-.281-.2-.32-.36A1.38 1.38 0 0 0 18.73.02c-.601 0-1.12.359-1.359.878-.039.16-.16.282-.32.36a.514.514 0 0 1-.477 0c-.562-.238-1.16-.16-1.597.281-.442.438-.52 1.035-.282 1.594a.5.5 0 0 1 0 .48c-.078.16-.199.242-.36.32-.37.157-.624.481-.733.88H11.98v-.399c0-.242-.16-.402-.398-.402H7.586c-.238 0-.399.16-.399.402v.399h-5.23C.879 4.813 0 5.69 0 6.809v15.175c0 1.118.879 1.996 1.957 1.996h15.215a1.977 1.977 0 0 0 1.996-1.996V10.34c.39-.11.7-.371.879-.695.039-.16.16-.282.32-.36a.492.492 0 0 1 .477 0c.562.238 1.16.16 1.597-.281.442-.438.52-1.04.282-1.598a.492.492 0 0 1 0-.476c.078-.16.199-.282.359-.32.559-.2.918-.72.918-1.317 0-.602-.36-1.121-.918-1.32zm-15.094.84h3.192v4.351L9.824 8.086c-.12-.121-.32-.121-.48 0L7.988 9.164zm10.383 17.171c0 .68-.52 1.196-1.2 1.196H1.958c-.64 0-1.16-.516-1.16-1.196V6.81c0-.68.52-1.2 1.16-1.2h5.23v3.637c0 .277.16.559.442.676a.73.73 0 0 0 .797-.078l1.16-.918 1.156.918c.16.12.32.16.48.16.118 0 .239 0 .317-.082a.733.733 0 0 0 .441-.676V5.61h1.594c.008.04.02.079.031.118.118.421.383.664.618.78.035.024.074.044.113.063.16.04.281.16.36.317a.5.5 0 0 1 0 .48c-.239.559-.16 1.16.28 1.598.282.285.633.418.997.41.218.008.437-.04.64-.129a.448.448 0 0 1 .219-.059.46.46 0 0 1 .219.06.7.7 0 0 1 .36.398c.023.043.046.082.07.12.175.348.472.567.89.637zm4.39-16.132c-.398.16-.679.437-.84.796-.155.36-.116.758.044 1.118.117.28.039.52-.121.68a.592.592 0 0 1-.68.12c-.36-.16-.758-.199-1.117-.039-.36.157-.64.438-.758.797a.568.568 0 0 1-.39.301.344.344 0 0 0-.13-.02c-.48.04-.558-.199-.601-.28a1.493 1.493 0 0 0-.797-.84c-.32-.141-.676-.126-1.004-.005a.577.577 0 0 0-.113.047.592.592 0 0 1-.68-.12c-.16-.122-.238-.4-.12-.68.198-.36.198-.758.038-1.118a1.374 1.374 0 0 0-.836-.8c-.015-.004-.039-.016-.062-.028-.16-.148-.219-.402-.219-.57 0-.2.082-.438.281-.48.399-.157.68-.438.836-.797.121-.36.121-.758-.039-1.118a.592.592 0 0 1 .121-.68c.121-.16.399-.28.637-.12.363.199.762.199 1.121.039.398-.157.68-.477.797-.836.121-.282.36-.399.558-.399.2 0 .442.118.56.399.16.398.44.718.8.836.36.12.758.12 1.117-.04a.592.592 0 0 1 .68.122c.16.16.238.398.12.68-.16.32-.16.757-.042 1.117.16.398.48.68.84.796.281.122.398.36.398.563 0 .2-.117.437-.398.559zm0 0"/>
    <path d="M18.77 3.215a1.977 1.977 0 0 0-1.997 1.996c0 1.117.88 1.996 1.997 1.996a1.977 1.977 0 0 0 1.996-1.996 1.977 1.977 0 0 0-1.996-1.996zm0 3.195c-.68 0-1.2-.52-1.2-1.2 0-.679.52-1.198 1.2-1.198.68 0 1.195.52 1.195 1.199 0 .68-.516 1.2-1.195 1.2zm0 0"/>
</svg>
